src/assets/images/liga/document.svg

<svg width="32" height="32" viewBox="0 0 32 32" fill="none" xmlns="http://www.w3.org/2000/svg">
<path fill-rule="evenodd" clip-rule="evenodd" d="M7.99988 1.80957C7.06531 1.80957 6.16902 2.18083 5.50817 2.84167C4.84733 3.50251 4.47607 4.39881 4.47607 5.33338V26.6667C4.47607 27.6013 4.84733 28.4976 5.50817 29.1584C6.16902 29.8193 7.06531 30.1905 7.99988 30.1905H23.9999C24.9345 30.1905 25.8307 29.8193 26.4916 29.1584C27.1524 28.4976 27.5237 27.6013 27.5237 26.6667V11.1227V11.1226C27.5236 10.6532 27.4298 10.1885 27.2476 9.7558C27.0655 9.3232 26.7988 8.93134 26.4632 8.60323L26.463 8.60308L20.5432 2.8139L20.5431 2.81386C19.8848 2.17016 19.0007 1.80968 18.08 1.80957H18.0799H7.99988ZM6.72036 4.05385C7.05971 3.7145 7.51997 3.52386 7.99988 3.52386H17.8094V8.00005C17.8094 8.93462 18.1807 9.83091 18.8415 10.4918C19.5024 11.1526 20.3987 11.5239 21.3333 11.5239H25.8094V26.6667C25.8094 27.1466 25.6188 27.6069 25.2794 27.9462C24.9401 28.2856 24.4798 28.4762 23.9999 28.4762H7.99988C7.51997 28.4762 7.05971 28.2856 6.72036 27.9462C6.38101 27.6069 6.19036 27.1466 6.19036 26.6667V5.33338C6.19036 4.85346 6.38101 4.3932 6.72036 4.05385ZM25.2449 9.80957L19.5237 4.21472V8.00005C19.5237 8.47996 19.7144 8.94022 20.0537 9.27957C20.3931 9.61892 20.8533 9.80957 21.3333 9.80957H25.2449ZM11.9999 16.4762C11.5265 16.4762 11.1427 16.86 11.1427 17.3334C11.1427 17.8068 11.5265 18.1905 11.9999 18.1905H19.9999C20.4733 18.1905 20.857 17.8068 20.857 17.3334C20.857 16.86 20.4733 16.4762 19.9999 16.4762H11.9999ZM11.1427 22.6667C11.1427 22.1933 11.5265 21.8096 11.9999 21.8096H15.9999C16.4733 21.8096 16.857 22.1933 16.857 22.6667C16.857 23.1401 16.4733 23.5239 15.9999 23.5239H11.9999C11.5265 23.5239 11.1427 23.1401 11.1427 22.6667Z" fill="#C81426"/>
</svg>

<svg xmlns="http://www.w3.org/2000/svg" width="32" height="32" fill="none" viewBox="0 0 32 32"><path fill="#C81426" fill-rule="evenodd" d="M8 1.81a3.524 3.524 0 0 0-3.524 3.523v21.334A3.524 3.524 0 0 0 8 30.19h16a3.524 3.524 0 0 0 3.524-3.523V11.123a3.524 3.524 0 0 0-1.06-2.52h-.001l-5.92-5.79A3.524 3.524 0 0 0 18.08 1.81H8zM6.72 4.054c.34-.34.8-.53 1.28-.53h9.81V8a3.524 3.524 0 0 0 3.523 3.524h4.476v15.143a1.81 1.81 0 0 1-1.81 1.81H8a1.81 1.81 0 0 1-1.809-1.81V5.333c0-.48.191-.94.53-1.28zM25.245 9.81l-5.721-5.595V8a1.81 1.81 0 0 0 1.81 1.81h3.91zM12 16.476a.857.857 0 0 0 0 1.715h8a.857.857 0 1 0 0-1.715h-8zm-.857 6.19c0-.473.383-.856.857-.856h4a.857.857 0 1 1 0 1.714h-4a.857.857 0 0 1-.857-.857z" clip-rule="evenodd"/></svg>
